X:1
T:Wein und Liebe
T:Franz Schubert
T:Friedrich Haug
T:Wein und Liebe
T:D. 901
T:CPDL - Creative Commons Attribution Non Commercial 3.0
T:CPDL - Creative Commons Attribution Non Commercial 3.0
T:CPDL - Creative Commons Attribution Non Commercial 3.0
T:CPDL - Creative Commons Attribution Non Commercial 3.0
T:CPDL - Creative Commons Attribution Non Commercial 3.0
T:CPDL - Creative Commons Attribution Non Commercial 3.0
T:CPDL - Creative Commons Attribution Non Commercial 3.0
T:CPDL - Creative Commons Attribution Non Commercial 3.0
C:Franz Schubert
Z:Friedrich Haug
Z:CPDL - Creative Commons Attribution Non Commercial 3.0
%%score [ ( 1 2 ) ( 3 4 ) ]
L:1/8
Q:1/4=96
M:4/4
K:D
V:1 treble-8 nm="Tenor"
V:2 treble-8 
V:3 bass nm="Bass"
V:4 bass 
V:1
!f!"^Lebhaft" d3 A F>A d>e | f2 e2 z4 | g3 e Pdc BA | A>f !>!e6 | d3 A F>A d>e | f2 e2 z2!p! A>a | %6
w: Lieb- chen und der Saft der|Re- ben|tei- len mei- * nes _|Her- zens Glut,|und be- se- li- gen mein|Le- ben: sie ist|
 a2 g2 z2 e>c | d4 z4 |!mf! f3 e d>d c>c | d2 B2 z2 ^d>d |!<(! e2 f2!<)!!>(! ^g3 f!>)! | %11
w: rei- zend, er ist|gut.|Lieb- chen macht den Wein mir|wer- ter, sie kre-|denzt so freund- lich|
 e4 z2!f! ee | e3 c Ac ea | ^e2 f2 z2 f>f | =e2 c2 d2 B2 | !>!^e6!ff! f>f | a2 c2 f2 e2 | A4 z4 | %18
w: ihn. Auch mein|Lieb- chen strahlt * ver- *|klär- ter, wenn ich|voll des Nek- tars|bin, wenn ich|voll des Nek- tars|bin.|
!mf! d3 A F>A d>e | f2 e2 z4 | g3 e dc BA | A>f !>!e6 |!p! d3 A F>A d>e | f2 e2 z2!f! a2- | %24
w: Dop- pelt ist mein Herz ge-|an- gelt:|Wein und Lieb- * chen _|preis' ich hoch,|wenn zu- wei- len ei- nes|man- gelt, trös-|
 a>g g2 z c e>d | d4 z4 |!p! z8 |!p! f3 f f>f f>f | f2 d2 z2!f! a2- | a>g g2 z c e>d | d4 z4 || %31
w: * tet mich das and'- re|doch,||wenn zu- wei- len Ei- nes|man- gelt, trös-|* tet mich das And'- re|doch.|
[Q:1/4=110]"^Geschwinder und etwas feuriger"!ff! d3 d =f>d d>d | d2 =c2 z2 _e>e | d2 g2 =f3 _e | %34
w: Bei- den e- wig an- zu-|hän- gen, schwö- re|fro- hen Mu- tes|
 d4 z4 | d3 d !>!=f>d d>d | d2 =c2 z2 d>d | _e2 =f2!>(! g3!>)! f | _e4 z2 e>e | !>!g3 _e !>!g3 e | %40
w: ich;|sie be- geis- tern zu Ge-|sän- gen, ja, zu|heil'- gem Wahn- sinn|mich. Bei- den|e- wig an- zu-|
 _B2 _e4 =fg | _a2 g2 =f2 g2 | _e6 e>e | !>!g3 _e !>!g3 e | _B_e e4 =fg |{_b} _a2 g2 =f2 g2 | %46
w: hän- gen, schwö- re|fro- hen Mu- tes|ich; sie be-|geis- tern zu Ge-|sän- * gen, ja, zu|heil'- gem Wahn- sinn|
"^cresc." _e6 e>e | _e3 e e3 e | _e_a a4!ff! =aa | =a3 ^f!>(! a3!>)! g | f6 f!p!f | f3 f g3 f | %52
w: mich, sie be-|geis- tern zu Ge-|sän- * gen, ja, zu|heil'- gem Wahn- sinn|mich, ja, zu|heil'- gem Wahn- sinn|
 !fermata!f8 ||!mf! =d3 A F>A d>e | f2 e2 z4 | g3 e ed cB | A>f e2 z2!f! A>A | d3 d!<(! df fa!<)! | %58
w: mich.|Wagt's, mein Lieb- chen an- zu-|bli- cken!|kos- tet mei- * nen _|Ta- fel- wein, und, o|Freun- de, mit _ Ent- *|
!>(! a2 g2!>)! z2 g>e | d3 d Ped ef | d2!f! e2 g3 e | d>d ef e2 A2 | a2 z2 z4 | z4 z2 A>A | %64
w: zü- cken stimmt ihr|in mein Lob- * lied _|ein; wagt's, wagt's, mein|Lieb- chen an- zu- bli- cken,|wagt's!|und, o|
 d3 d!<(! df fa!<)! |!>(! a2 g2!>)! z2 g>e | c3 c d2 f2 | e6 e>e | f3 d B2 e2 | !fermata!A8 || %70
w: Freun- de, mit _ Ent- *|zü- cken stimmt ihr|in mein Lob- lied|ein, stimmt ihr|in mein Lob- lied|ein.|
[M:2/4][Q:1/4=110]"^Sehr schnell" !>!dc BA | !>!BA GF | G!<(!A Bc | de!<)! f2 |!pp! ge ee | %75
w: So ver- schön' ich|oh- ne Kum- mer|täg- lich mei- nen|Le- bens- lauf;|Bac- chus dank' ich|
 f/e/ d/e/ fd | !>!ed !>!ed | A B/c/ d2 |!mf! !>!gf ed | !>!gf ed |!pp! F/G/ A/B/ AA | ee f2 | %82
w: sü- * ßen _ Schlum- mer,|A- mor weckt mich|wie- der _ auf;|so ver- schön' ich|oh- ne Kum- mer|täg- * lich _ mei- nen|Le- bens- lauf;|
!mf! !>!gf ed | !>!gf ed |!pp! F/G/ A/B/ AA | ee f2 |"^cresc." ff ff | f e/f/ ^g2 | %88
w: Bac- chus dank' ich|sü- ßen Schlum- mer,|A- * mor _ weckt mich|wie- der auf,|A- mor weckt mich|wie- der _ auf,|
!f!!>(! a3 =g!>)! |!p! gf"^decresc."[Q:1/4=100]"^ritard." fe | Ad !fermata!e2 | %91
w: A- mor,|A- mor weckt mich|wie- der auf.|
[Q:1/4=110]"^a tempo"!pp! !>!dc BA | !>!BA GF |!<(! GA Bc | de!<)! f2 |!pp! af ff | %96
w: So ver- schön' ich|oh- ne Kum- mer|täg- lich mei- nen|Le- bens- lauf;|Bac- chus dank' ich|
 ^g/f/ ^e/f/ gc | !>!=gf !>!gf | e d/c/ d2 | af ff | ^g/f/ ^e/f/ gc | !>!=gf !>!gf | %102
w: sü- * ßen * Schlum- mer,|A- mor weckt mich|wie- der _ auf,|Bac- chus dank' ich|sü- * ßen * Schlum- mer,|A- mor weckt mich|
 !>!g"^cresc."f !>!gf | !>!gf!f!!>(! a2-!>)! | a2 g2 |!p! f e/f/ ge | d!pp! !>!F>G A/B/ | AA AA | %108
w: wie- der, weckt mich|wie- der, A-|* mor|weckt mich * wie- der|auf; so _ ver- *|schön' ich oh- ne|
 AF !>!f>d | de | fg | f !>!F>G A/B/ | AA AA | AF !>!f>d | de fe | d2!pp! d>A | AF d>A | AF!f! fd | %118
w: Kum- mer täg- lich|mei- nen|Le- bens-|lauf; Bac- * chus _|dank' ich sü- ßen|Schlum- mer, A- mor|weckt mich wie- der|auf, Bac- chus|dank' ich sü- ßen|Schlum- mer, A- mor|
 !>!a3 f | !>!a3 c | !fermata!d4 |] %121
w: weckt mich|wie- der|auf.|
V:2
 A3 F D>F A>c | d2 c2 x4 | B3 B G2 G2 | F>d c6 | A3 F D>F A>c | d2 c2 x2 A>f | f2 e2 x2 A>A | %7
w: |||||||
 A4 x4 | d3 c B>B ^A>A | B2 B2 x2 B>B | B2 e2 e3 ^d | e4 x2 dd | c3 c c2 c2 | c2 d2 x2 d>d | %14
w: |||||||
 c2 A2 B2 ^G2 | B6 A>d | c2 c2 B2 B2 | A4 x4 | A3 F D>F A>c | d2 c2 x4 | B3 B G2 G2 | F>d c6 | %22
w: ||||||||
 A3 F D>F A>c | d2 c2 x2 f2- | f>e e2 x A A>A | A4 x4 | d3 d d>d c>c | d>d d>d d>d c>c | %28
w: ||||wenn zu- wei- len ei- nes|man- gelt, wenn zu- wei- len Ei- nes|
 d2 d2 x2 f2- | f>e e2 x A A>A | A4 x4 || _B3 B d>B B>B | _B2 A2 x2 =c>c | =B2 _e2 =c3 c | _B4 x4 | %35
w: |||||||
 _B3 B d>B B>B | _B2 A2 x2 =B>B | =c2 _e2 e3 d | _B4 x2 B>B | _e3 _B e3 B | G2 _B4 _ee | %41
w: ||||||
 _e2 e2 =c2 d2 | _B6 B>B | _e3 _B e3 B | G_B B4 _ee | _e2 e2 =c2 d2 | _B6 B>B | c3 c c3 c | %48
w: |||||||
 =c_e e4 ^dd | ^f3 =B f3 e | ^d6 dd | e3 e e3 e | ^d8 || F3 F =D>F A>c | d2 c2 x4 | B3 B G2 G2 | %56
w: ||||||||
 F>d c2 x2 A>A | A3 A d2 d2 | d2 d2 x2 B>B | A3 A A2 A2 | A2 c2 e3 A | F>F Ad c2 A2 | c2 x2 x4 | %63
w: |||||||
 x4 x2 A>A | A3 A d2 d2 | d2 d2 x2 B>B | A3 A A2 d2 | c6 c>c | d3 A B2 B2 | A8 ||[M:2/4] FA GF | %71
w: ||||||||
 GF ED | EF GA | Bc d2 | eA AA | A B/c/ dF | AA AA | AA A2 | dd dd | dd dd | F/G/ A/B/ AA | cc d2 | %82
w: |||||||||||
 dd dd | dd dd | F/G/ A/B/ AA | cc d2 | ^dd dd | ^d c/d/ e2 | e3 e | dd BB | AA c2 | FA GF | %92
w: ||||||||||
 GF ED | EF GA | Bc d2 | cc cc | cc ^ee | =ed ed | AA A2 | cc cc | cc ^ee | =ed ed | ed ed | %103
w: |||||||||||
 ed d2- | d2 e2 | d c/d/ eA | F F>G A/B/ | AA AA | AF d>d | dB | dc | d F>G A/B/ | AA AA | AF d>d | %114
w: |||||||||||
 dB dc | d2 d>A | AF d>A | AF dd | f3 d | e3 A | A4 |] %121
w: |||||||
V:3
!f! F,3 D, D,>D, F,>A, | A,2 A,2 z4 | G,3 G, E,2 E,2 | D,>A, !>!A,6 | F,3 D, D,>D, F,>A, | %5
w: |||||
 A,2 A,2 z2!p! A,>A, | B,2 B,2 z2 G,>E, | F,4 z4 | z8 |!mf! D3 C B,>B, A,>A, | %10
w: ||||Lieb- chen macht ihn wer- ter,|
 ^G,>!<(!G, ^A,>!<)!A,!>(! B,3 =A,!>)! | ^G,4 z2!f! G,G, | A,3 A, A,2 A,2 | A,2 A,2 z2 A,>A, | %14
w: sie kre- denzt so freund- lich|ihn. * *|||
 A,2 E,2 E,2 E,2 | !>!^G,6!ff! F,>A, | A,2 A,2 A,2 ^G,2 | A,4 z4 |!mf! F,3 D, D,>D, F,>A, | %19
w: |||||
 A,2 A,2 z4 | G,3 G, E,2 E,2 | D,>A, !>!A,6 |!p! F,3 D, D,>D, F,>A, | A,2 A,2 z2!f! (A,2 | %24
w: |||||
 B,>)B, B,2 z E, G,>F, | F,4 z4 |!p! B,3 B, B,>B, ^A,>A, |!p! B,>B, B,>B, B,>B, ^A,>A, | %28
w: ||||
 B,2 B,2 z2!f! (=A,2 | B,>)B, B,2 z E, G,>F, | F,4 z4 ||!ff! =F,3 F, F,>F, F,>F, | %32
w: ||||
 =F,2 F,2 z2 G,>G, | G,2 _B,2 A,3 A, | _B,4 z4 | =F,3 F, !>!F,>F, F,>F, | =F,2 F,2 z2 F,>F, | %37
w: |||||
 G,2 =C2!>(! _B,3!>)! B, | G,4 z2 G,>G, | !>!_B,3 G, !>!B,3 G, | _E,2 G,4 _A,_B, | %41
w: ||||
 =C2 _B,2 C2 B,2 | G,6 G,>G, | !>!_B,3 G, !>!B,3 G, | _E,G, G,4 _A,_B, | =C2 _B,2 C2 B,2 | %46
w: |||||
"^cresc." G,6 G,>G, | _B,3 B, B,3 B, | _A,_C C4!ff! =B,B, | B,3 B,!>(! B,3!>)! B, | B,6 B,!p!B, | %51
w: |||||
 ^A,3 A, A,3 A, | !fermata!B,8 ||!mf! =A,3 D, D,>D, D,>A, | A,2 A,2 z4 | G,3 G, E,2 E,2 | %56
w: |||||
 D,>A, A,2 z2!f! A,>A, | F,3 F,!<(! F,A, A,=C!<)! |!>(! =C2 B,2!>)! z2 B,>G, | F,3 F, G,F, G,A, | %60
w: ||||
 F,2 A,2 z4 | z8 | z2 A,2 !>!E3 C | D>F, A,>D C2 A,>A, | F,3 F,!<(! F,A, A,=C!<)! | %65
w: ||und kos- tet|mei- nen Ta- fel- wein, * *||
!>(! =C2 B,2!>)! z2 B,>G, | E,3 E, F,2 A,2 | A,6 A,>A, | A,3 A, A,2 ^G,2 | !fermata!A,8 || %70
w: |||||
[M:2/4] !>!D,D, D,D, | !>!D,D, D,D, | D,!<(!D, D,D, | D,D,!<)! D,2 |!pp! A,A, A,A, | A,A, A,A, | %76
w: ||||||
 !>!G,F, !>!G,F, | E,G, F,2 |!mf! !>!B,A, G,F, | !>!B,A, G,F, |!pp! F,/G,/ A,/B,/ A,A, | A,A, A,2 | %82
w: ||||||
!mf! !>!B,A, G,F, | !>!B,A, G,F, |!pp! F,/G,/ A,/B,/ A,A, | A,A, A,2 |"^cresc." B,B, B,B, | %87
w: |||||
 B,B, B,2 |!f!!>(! A,3 A,!>)! |!p! A,A,"^decresc." G,G, | F,F, !fermata!A,2 |!pp! !>!D,D, D,D, | %92
w: |||||
 !>!D,D, D,D, |!<(! D,D, D,D, | D,D,!<)! D,2 |!pp! A,A, A,A, | A,A, CC | !>!A,A, !>!A,A, | %98
w: ||||||
 G, F,/E,/ F,2 | A,A, A,A, | A,A, CC | !>!A,A, !>!A,A, | !>!A,"^cresc."A, !>!A,A, | %103
w: |||||
 !>!A,A,!f!!>(! B,2-!>)! | B,2 B,2 |!p! A,A, A,A, | A,!pp! !>!F,>G, A,/B,/ | A,A, A,A, | %108
w: |||||
 A,F, !>!A,>F, | F,G, | A,A, | A, !>!F,>G, A,/B,/ | A,A, A,A, | A,F, !>!A,>F, | F,G, A,A, | %115
w: |||||||
 F,2!pp! D>A, | A,F, D>A, | A,F,!f! A,A, | !>!A,3 A, | !>!A,3 G, | !fermata!F,4 |] %121
w: ||||||
V:4
 D,3 D, D,>D, D,>A,, | D,2 A,,2 x4 | E,3 E, A,,2 A,,2 | D,>D, A,,6 | D,3 D, D,>D, D,>A,, | %5
w: |||||
 D,2 A,,2 x2 F,,>F,, | G,,2 G,,2 x2 A,,>A,, | D,4 x4 | x8 | B,3 A, ^G,>G, F,>F, | %10
w: |||||
 E,>E, C,>C, B,,3 B,, | E,4 x2 E,E, | A,3 A,, A,,2 A,,2 | D,2 D,2 x2 D,>D, | E,2 E,2 E,2 E,2 | %15
w: |||||
 C,6 D,>D, | E,2 F,2 D,2 E,2 | A,,4 x4 | D,3 D, D,>D, D,>A,, | D,2 A,,2 x4 | E,3 E, A,,2 A,,2 | %21
w: ||||||
 D,>D, A,,6 | D,3 D, D,>D, D,>A,, | D,2 A,,2 x2 (F,,2 | G,,>)G,, G,,2 x A,, A,,>A,, | D,4 x4 | x8 | %27
w: ||||||
 B,,3 B,, D,>D, F,>F, | D,2 B,,2 x2 (F,,2 | G,,>)G,, G,,2 x A,, A,,>A,, | D,4 x4 || %31
w: wenn zu- wei- len Ei- nes||||
 _B,,3 B,, B,,>B,, B,,>D, | =F,2 F,2 x2 =C,>C, | G,2 _E,2 =F,3 F, | _B,4 x4 | %35
w: ||||
 _B,,3 B,, B,,>B,, B,,>D, | =F,2 F,2 x2 D,>D, | =C,2 A,,2 _B,,3 B,, | _E,4 x2 E,>E, | %39
w: ||||
 _E,3 E, E,3 E, | _E,2 E,4 E,E, | _A,,2 _E,2 A,,2 _B,,2 | _E,6 E,>E, | _E,3 E, E,3 E, | %44
w: |||||
 _E,2 E,4 E,E, | _A,,2 _E,2 A,,2 _B,,2 | _E,6 E,>E, | _E,3 E, E,3 E, | _E,2 E,4 ^D,D, | %49
w: |||||
 ^D,3 D, E,3 E, | B,,6 B,,B,, | =C,3 C, C,3 C, | B,,8 || D,3 D, D,>D, D,>A,, | D,2 A,,2 x4 | %55
w: ||||||
 E,3 E, A,,2 A,,2 | D,>D, A,,2 x2 A,>A, | D,3 D, D,2 D,2 | G,,2 G,,2 x2 G,,>G,, | %59
w: ||||
 A,,3 A,, A,,2 A,,2 | D,2 A,,2 x4 | x8 | x2 A,,2 A,3 G, | F,>D, E,>F, E,2 A,>A, | D,3 D, D,2 D,2 | %65
w: ||||||
 G,,2 G,,2 x2 G,,>G,, | A,,3 A,, A,,2 A,,2 | A,,6 A,,>A,, | D,3 F, E,2 E,2 | A,,8 || %70
w: |||||
[M:2/4] D,D, D,D, | D,D, D,D, | D,D, D,D, | D,D, D,2 | D,D, D,D, | D,D, D,D, | D,D, D,D, | %77
w: |||||||
 D,D, D,2 | D,D, D,D, | D,D, D,D, | F,,/G,,/ A,,/B,,/ A,,A,, | A,,A,, D,2 | D,D, D,D, | D,D, D,D, | %84
w: |||||||
 F,,/G,,/ A,,/B,,/ A,,A,, | A,,A,, D,2 | B,,B,, B,,B,, | B,,B,, E,2 | C,3 C, | D,D, G,,G,, | %90
w: ||||||
 A,,A,, A,,2 | D,D, D,D, | D,D, D,D, | D,D, D,D, | D,D, D,2 | C,C, C,C, | C,C, C,C, | C,D, C,D, | %98
w: ||||||||
 A,,A,, D,2 | C,C, C,C, | C,C, C,C, | C,D, C,D, | C,D, C,D, | C,D, G,,2 | G,,2 G,,2 | %105
w: |||||||
 A,,A,, A,,A,, | D, F,,>G,, A,,/B,,/ | A,,A,, A,,A,, | A,,F,, A,,>A,, | A,,A,, | A,,A,, | %111
w: ||||||
 D, F,,>G,, A,,/B,,/ | A,,A,, A,,A,, | A,,F,, A,,>A,, | A,,A,, A,,A,, | D,2 D,>A,, | %116
w: |||||
 A,,F,, D,>A,, | A,,F,, D,F, | A,,3 A,, | A,,3 A,, | D,4 |] %121
w: |||||

